X:27
T:Forgetting the Lesson
C:Irish Jig from Donegal
S:Tune of the Month, Dec. 2001, Sivler Apple News 8
B:A Dossan of Heather,Packie Manus Byrne
Z:Paul Stewart Cranford (P.S.C.), <http://www.cranfordpub.com>
Q:300
L:1/8
M:6/8
K:Dmix
AAA AGF|G2 G GFG|A3 ABc|BAG FED|  
A2 A AGF|GGG GFG|ABc BAG|ADD D3:|  
d3 dAF|G2 G GFG|A3 ABc|BAG FED|  
d3 dAF|G2 G GFG|ABc BAG|AB^c d3|  
ded dAF|G2 G GFG|A3 ABc|BAG FED|  
ded dAF|G2 G GFG|ABc BAG|ADD D3|]
